icons/mimetypes/64/image-x-psd.svg

<?xml version="1.0" encoding="UTF-8" standalone="no"?>
<svg width="64" version="1.1" xmlns="http://www.w3.org/2000/svg" viewBox="0 0 64 64" height="64" xmlns:xlink="http://www.w3.org/1999/xlink" xmlns:inkscape="http://www.inkscape.org/namespaces/inkscape">
 <defs id="defs4">
  <linearGradient inkscape:collect="always" id="linearGradient4351">
   <stop style="stop-color:#97aad8" id="stop4353"/>
   <stop offset="1" style="stop-color:#c1cae7" id="stop4355"/>
  </linearGradient>
  <linearGradient inkscape:collect="always" xlink:href="#linearGradient4300-2" id="linearGradient4306" y1="61" y2="3" x2="0" gradientUnits="userSpaceOnUse"/>
  <linearGradient inkscape:collect="always" xlink:href="#linearGradient4410" id="linearGradient4427" y1="31" x1="54" y2="17" x2="40" gradientUnits="userSpaceOnUse" gradientTransform="matrix(1 0 0 -1 -14 78)"/>
  <linearGradient inkscape:collect="always" id="linearGradient4410">
   <stop style="stop-color:#383e51" id="stop4412"/>
   <stop offset="1" style="stop-color:#655c6f;stop-opacity:0" id="stop4414"/>
  </linearGradient>
  <linearGradient inkscape:collect="always" xlink:href="#linearGradient4351" id="linearGradient4357" y1="61" y2="47" x2="0" gradientUnits="userSpaceOnUse"/>
  <linearGradient id="linearGradient4300-2">
   <stop style="stop-color:#3a539b" id="stop4302-4"/>
   <stop offset="1" style="stop-color:#3f5aa9" id="stop4304-1"/>
  </linearGradient>
 </defs>
 <metadata id="metadata84"/>
 <path style="fill:url(#linearGradient4306)" id="rect3500" d="M 10 3 L 10 61 L 40 61 L 54 47 L 54 17 L 54 3 L 40 3 L 10 3 z "/>
 <rect width="30" x="10" y="60" height="1" style="fill:#2e3132;fill-opacity:0.294118" id="rect4169"/>
 <rect width="44" x="10" y="3" height="1" style="fill:#ffffff;fill-opacity:0.409836" id="rect4236"/>
 <path inkscape:connector-curvature="0" style="fill:url(#linearGradient4357);fill-rule:evenodd" id="path4314" d="M 54,47 40,61 40,47 Z"/>
 <path inkscape:connector-curvature="0" style="fill:url(#linearGradient4427);opacity:0.2;fill-rule:evenodd" id="path4320" d="M 26,61 40,47 40,61 Z"/>
 <path style="fill:#c1cae7" id="rect4165" d="M 27 21 C 23.676 21 21 23.676 21 27 C 21 28.09611 21.295434 29.119488 21.804688 30.001953 L 21.800781 30 L 21.882812 30.130859 C 21.940348 30.22498 21.996104 30.319579 22.058594 30.410156 L 30 43 L 30 33 L 37 33 C 40.324 33 43 30.324 43 27 C 43 23.676 40.324 21 37 21 L 27 21 z M 37 23 A 4 4 0 0 1 41 27 A 4 4 0 0 1 37 31 A 4 4 0 0 1 33 27 A 4 4 0 0 1 37 23 z "/>
</svg>

<?xml version="1.0" encoding="UTF-8" standalone="no"?>
<svg
   xmlns:dc="http://purl.org/dc/elements/1.1/"
   xmlns:cc="http://creativecommons.org/ns#"
   xmlns:rdf="http://www.w3.org/1999/02/22-rdf-syntax-ns#"
   xmlns:svg="http://www.w3.org/2000/svg"
   xmlns="http://www.w3.org/2000/svg"
   xmlns:xlink="http://www.w3.org/1999/xlink"
   xmlns:sodipodi="http://sodipodi.sourceforge.net/DTD/sodipodi-0.dtd"
   xmlns:inkscape="http://www.inkscape.org/namespaces/inkscape"
   width="64"
   version="1.1"
   viewBox="0 0 64 64"
   height="64"
   id="svg2"
   inkscape:version="0.91 r13725"
   sodipodi:docname="image-x-psd.svg">
  <sodipodi:namedview
     pagecolor="#ffffff"
     bordercolor="#666666"
     borderopacity="1"
     objecttolerance="10"
     gridtolerance="10"
     guidetolerance="10"
     inkscape:pageopacity="0"
     inkscape:pageshadow="2"
     inkscape:window-width="1854"
     inkscape:window-height="1051"
     id="namedview24"
     showgrid="false"
     inkscape:zoom="7.375"
     inkscape:cx="28.5116"
     inkscape:cy="30.008203"
     inkscape:window-x="66"
     inkscape:window-y="0"
     inkscape:window-maximized="1"
     inkscape:current-layer="svg2" />
  <defs
     id="defs4">
    <linearGradient
       id="linearGradient4300-2">
      <stop
         style="stop-color:#3a539b"
         id="stop4302-4" />
      <stop
         offset="1"
         style="stop-color:#3f5aa9"
         id="stop4304-1" />
    </linearGradient>
    <linearGradient
       inkscape:collect="always"
       xlink:href="#linearGradient4300-2"
       id="linearGradient4306-3"
       y1="61"
       y2="3"
       x2="0"
       gradientUnits="userSpaceOnUse"
       gradientTransform="matrix(1.3181818,0,0,1,-10.181818,0)" />
  </defs>
  <metadata
     id="metadata84">
    <rdf:RDF>
      <cc:Work
         rdf:about="">
        <dc:format>image/svg+xml</dc:format>
        <dc:type
           rdf:resource="http://purl.org/dc/dcmitype/StillImage" />
      </cc:Work>
    </rdf:RDF>
  </metadata>
  <path
     style="fill:url(#linearGradient4306-3);fill-opacity:1.0"
     id="rect3500-3"
     d="M 3,3 3,61 42.545455,61 61,61 61,17 61,3 42.545455,3 Z"
     inkscape:connector-curvature="0"
     sodipodi:nodetypes="cccccccc" />
  <rect
     width="58"
     x="3"
     y="60"
     height="1"
     style="fill:#2e3132;fill-opacity:0.29411801"
     id="rect4169-5" />
  <rect
     width="58"
     x="3"
     y="3"
     height="1"
     style="fill:#ffffff;fill-opacity:0.40983599"
     id="rect4236-6" />
  <path
     style="fill:#c1cae7"
     id="rect4165"
     d="m 27,21 c -3.324,0 -6,2.676 -6,6 0,1.09611 0.295434,2.11949 0.804688,3.00195 l -0.0039,-0.002 0.08203,0.13086 c 0.05754,0.0941 0.113292,0.18872 0.175782,0.2793 L 30,43 l 0,-10 7,0 c 3.324,0 6,-2.676 6,-6 0,-3.324 -2.676,-6 -6,-6 l -10,0 z m 10,2 a 4,4 0 0 1 4,4 4,4 0 0 1 -4,4 4,4 0 0 1 -4,-4 4,4 0 0 1 4,-4 z"
     inkscape:connector-curvature="0" />
</svg>
